X:24
T:Lady Garners Troop. LIT.024
M:2/4
Q:1/4=130
L:1/8
B:Wm. Litten MS, 1802
Z:Village Music Project 2017 Anne Wride
K:F
C | FG Fc | AF cF | EC GC | E/F/G/E/ CE |
FG Fc | AF cF | cf a/g/f/e/ | f3 :|
|: c | fc ac | bc ac | cf b/a/g/f/ | eg ga |
fc ac | bc ac | cf a/g/f/e/ | f3 c |
fc ac | bc ac |cf b/a/g/f/ | eg ga |
dB df | cA df | cf a/g/f/e/ | f3 :|

